public/avatar/item2/36.svg

<svg xmlns:xlink="http://www.w3.org/1999/xlink" height="99.2" width="82.2" xmlns="http://www.w3.org/2000/svg"><use height="9.9" transform="translate(33.3 71.45)" width="9.85" xlink:href="#a"/><defs><g id="a"><path d="M12.15 29.65q0 2-1.45 3.5-1.45 1.45-3.5 1.45-2 0-3.45-1.45-1.45-1.5-1.45-3.5 0-2.05 1.45-3.45 1.45-1.5 3.45-1.5 2.05 0 3.5 1.5 1.45 1.4 1.45 3.45" fill-rule="evenodd" transform="translate(-2.3 -24.7)"/><path d="m10.4 27 .35.5.05.1.1.2.15.25.1.25.05.2.15.8v.35l-.05.35-.15.9-.05.1-.3.7-.6.85-.05.05-.9.65-2.05.5q-1.1 0-2-.5-.45-.25-.85-.65l-.05-.05-.6-.85-.1-.15-.2-.55-.2-1h4.45v-4.4q1 .1 1.9.65l.6.5.25.25" fill="#fff" fill-rule="evenodd" transform="translate(-2.3 -24.7)"/><path d="M7.65 30H3.2l-.05-.35q0-1.7 1.2-2.9 1.15-1.2 2.85-1.15h.45V30" fill="#009" fill-rule="evenodd" transform="translate(-2.3 -24.7)"/><path d="M10.8 31.55H3.7l-.1-.15-.2-.55h7.7l-.3.7m-.65 1.05-.9.65H5.2q-.45-.25-.85-.65v-.05h5.8v.05m1-4.3.05.2H7.65v-.7h3.25l.15.25.1.25m.15 1.7H7.65v-.7h3.7v.35l-.05.35m-.9-3H7.65v-.75h1.9l.6.5.25.25" fill="red" fill-rule="evenodd" transform="translate(-2.3 -24.7)"/><path d="M4.5 27.15q1.3-.9 2.7-.9 1.8 0 2.8 1.1" fill="none" stroke="#fff" stroke-linecap="round" stroke-linejoin="round" stroke-opacity=".6" transform="translate(-2.3 -24.7)"/><path d="M10 32.4q-1.3.9-2.7.9-1.8 0-2.8-1.1" fill="none" stroke="#000" stroke-linecap="round" stroke-linejoin="round" stroke-opacity=".302" transform="translate(-2.3 -24.7)"/></g></defs></svg>

<?xml version="1.0" encoding="UTF-8" standalone="no"?>
<svg xmlns:xlink="http://www.w3.org/1999/xlink" height="99.2px" width="82.2px" xmlns="http://www.w3.org/2000/svg">
  <g transform="matrix(1.0, 0.0, 0.0, 1.0, 31.0, 46.75)">
    <use height="9.9" transform="matrix(1.0, 0.0, 0.0, 1.0, 2.3, 24.7)" width="9.85" xlink:href="#shape0"/>
  </g>
  <defs>
    <g id="shape0" transform="matrix(1.0, 0.0, 0.0, 1.0, -2.3, -24.7)">
      <path d="M12.15 29.65 Q12.15 31.65 10.7 33.15 9.25 34.6 7.2 34.6 5.2 34.6 3.75 33.15 2.3 31.65 2.3 29.65 2.3 27.6 3.75 26.2 5.2 24.7 7.2 24.7 9.25 24.7 10.7 26.2 12.15 27.6 12.15 29.65" fill="#000000" fill-rule="evenodd" stroke="none"/>
      <path d="M10.4 27.0 L10.75 27.5 10.8 27.6 10.9 27.8 11.05 28.05 11.15 28.3 11.2 28.5 11.35 29.3 11.35 29.65 11.3 30.0 11.15 30.9 11.1 31.0 10.8 31.7 10.2 32.55 10.15 32.6 9.25 33.25 7.2 33.75 Q6.1 33.75 5.2 33.25 4.75 33.0 4.35 32.6 L4.3 32.55 3.7 31.7 3.6 31.55 3.4 31.0 3.2 30.0 7.65 30.0 7.65 25.6 Q8.65 25.7 9.55 26.25 L10.15 26.75 10.4 27.0" fill="#ffffff" fill-rule="evenodd" stroke="none"/>
      <path d="M7.65 30.0 L3.2 30.0 3.15 29.65 Q3.15 27.95 4.35 26.75 5.5 25.55 7.2 25.6 L7.65 25.6 7.65 30.0" fill="#000099" fill-rule="evenodd" stroke="none"/>
      <path d="M10.8 31.55 L3.7 31.55 3.6 31.4 3.4 30.85 11.1 30.85 10.8 31.55 M10.15 32.6 L9.25 33.25 5.2 33.25 Q4.75 33.0 4.35 32.6 L4.35 32.55 10.15 32.55 10.15 32.6 M11.15 28.3 L11.2 28.5 7.65 28.5 7.65 27.8 10.9 27.8 11.05 28.05 11.15 28.3 M11.3 30.0 L7.65 30.0 7.65 29.3 11.35 29.3 11.35 29.65 11.3 30.0 M10.4 27.0 L7.65 27.0 7.65 26.25 9.55 26.25 10.15 26.75 10.4 27.0" fill="#ff0000" fill-rule="evenodd" stroke="none"/>
      <path d="M4.5 27.15 Q5.8 26.25 7.2 26.25 9.0 26.25 10.0 27.35" fill="none" stroke="#ffffff" stroke-linecap="round" stroke-linejoin="round" stroke-opacity="0.6" stroke-width="1.0"/>
      <path d="M10.0 32.4 Q8.7 33.3 7.3 33.3 5.5 33.3 4.5 32.2" fill="none" stroke="#000000" stroke-linecap="round" stroke-linejoin="round" stroke-opacity="0.3019608" stroke-width="1.0"/>
    </g>
  </defs>
</svg>
